svgs/asphalt_9.svg

<svg width="192" height="192" viewBox="0 0 192 192" fill="none" xmlns="http://www.w3.org/2000/svg">
<path fill-rule="evenodd" clip-rule="evenodd" d="M33 28.0716C33 21.4046 38.3726 16 45 16H146C152.627 16 158 21.4046 158 28.0716V134.257C158 138.548 155.736 142.517 152.052 144.681L101.552 174.352C97.8129 176.549 93.1871 176.549 89.4478 174.352L38.9478 144.681C35.2645 142.517 33 138.548 33 134.257V28.0716ZM146 34.0716C146 30.7578 143.314 28.0716 140 28.0716H51C47.6863 28.0716 45 30.7579 45 34.0716V130.823C45 132.951 46.1264 134.919 47.9605 135.996L95.5 163.928L143.04 135.996C144.874 134.919 146 132.951 146 130.823V34.0716Z" fill="black"/>
<path fill-rule="evenodd" clip-rule="evenodd" d="M138 44.1312C138 40.8175 135.314 38.1312 132 38.1312L59 38.1312C55.6863 38.1312 53 40.8175 53 44.1312V83.7344C53 87.0481 55.6863 89.7344 59 89.7344H126V119.773L95.5 137.766L65 119.773V103.464C65 100.131 62.3137 97.4286 59 97.4286C55.6863 97.4286 53 100.131 53 103.464V119.773C53 124.056 55.2565 128.019 58.9295 130.186L89.4295 148.179C93.178 150.391 97.822 150.391 101.57 148.179L132.071 130.186C135.744 128.019 138 124.056 138 119.773V44.1312ZM126 77.6628V50.2028H65V77.6628H126Z" fill="black"/>
</svg>

<svg width="192" height="192" viewBox="0 0 192 192" fill="none" xmlns="http://www.w3.org/2000/svg"><path fill-rule="evenodd" clip-rule="evenodd" d="M33 28.072C33 21.405 38.373 16 45 16h101c6.627 0 12 5.405 12 12.072v106.185c0 4.291-2.264 8.26-5.948 10.424l-50.5 29.671a11.938 11.938 0 0 1-12.104 0l-50.5-29.671A12.086 12.086 0 0 1 33 134.257V28.072Zm113 6a6 6 0 0 0-6-6H51a6 6 0 0 0-6 6v96.751a5.998 5.998 0 0 0 2.96 5.173l47.54 27.932 47.54-27.932a5.998 5.998 0 0 0 2.96-5.173V34.072Z" fill="#000"/><path fill-rule="evenodd" clip-rule="evenodd" d="M138 44.131a6 6 0 0 0-6-6H59a6 6 0 0 0-6 6v39.603a6 6 0 0 0 6 6h67v30.039l-30.5 17.993L65 119.773v-16.309c0-3.333-2.686-6.035-6-6.035s-6 2.702-6 6.035v16.309c0 4.283 2.257 8.246 5.93 10.413l30.5 17.993a11.935 11.935 0 0 0 12.14 0l30.501-17.993A12.086 12.086 0 0 0 138 119.773V44.131Zm-12 33.532v-27.46H65v27.46h61Z" fill="#000"/></svg>
